X:210
T: Walls Of Liscarroll, The
M: 6/8
L: 1/8
R: jig
K: Dmix
|: dcA AGE | GED D2E | GEE cEE | GAB cde |
|dcA AGE | GED D2E | GEE cEE | DED D3:|
|~d3 ecA | ~d3 ecA | GEE cEE | GAB cde |
|~d3 ecA |  ~d3 ecA | GEE cEE |DED D3 |
|dcd ecA | dcd ecA | GEE cEE | GAB cde |
|dcA AGE | GED D2E | GEE cEE |DED D3 ||
% Hornpipes, Barn Dances, Marches, etc.
